X:170
%%pagewidth 9in
%%vocalfont Baskerville10Pro 14
T:The fetching home of May
M:6/8
L:1/8
K:C
%%score 1 2
V:1 clef-treble
V:2 clef-bass octave=-1
V:1
[Ec]2G EFG|edc dBG|c2G EFG|
w:Pan leave pi-ping, The Gods have done feast-ing, There's never a God-dess a
V:2
C6|c3B3 & G6|[Ec]3[CG]3|
V:1
[FBe]d>c [Ec]3|[Ec]2G EFG|edc dBG & ^F3 =F3|[Ec]2G EFG|
w:hunt-ing to-day; Mor-tals mar-vel at Co-ri-don's jest-ing, That gives them assis-tance to
V:2
[G,G]3[CG]3|CEG c3|A3 B3|cGE C3|
V:1
[FBe]d>c[Ec]3||edc dec|edc dBG|
w:en-tertain May. The lads and the lass-es, With scarves on their fa-ces, So
V:2
G,3C3||gfe fge &c6|gfe [GBd]3 &c3x3|
V:1
c2G EFG|[FBe]d>c [Ec]3|edc dec|
w:lively time pass-es, Trip o-ver the downs: Much mirth and sport they make,
V:2
[Ec]3 [CG]3|[G,G]3[CG]3|gfe fge &c6|
V:1
edc dBG &^F3=F3|[Ec]2G EFG|[FBe]d>c [Ec]3||
w:Run-ning at Barley-break, Good lack, what pains they take, For a green gown.
V:2
A3B3|cGE C3|G,3C3||

